contributed-vectors/skycash.svg

<svg xmlns="http://www.w3.org/2000/svg" xml:space="preserve" style="fill-rule:evenodd;clip-rule:evenodd;stroke-linejoin:round;stroke-miterlimit:2" viewBox="0 0 192 192"><path d="M164.5 21.5c0-5.519-4.481-10-10-10h-133c-5.519 0-10 4.481-10 10v133c0 5.519 4.481 10 10 10h133c5.519 0 10-4.481 10-10v-133Z" style="fill:#fff" transform="translate(8 8)"/><path d="M99.34 66.488a.464.464 0 0 1 .898 0l2.203 8.483a3.293 3.293 0 0 0 2.361 2.361l8.483 2.203a.464.464 0 0 1 0 .898l-8.483 2.203a3.293 3.293 0 0 0-2.361 2.361l-2.203 8.483a.464.464 0 0 1-.898 0l-2.203-8.483a3.293 3.293 0 0 0-2.361-2.361l-8.483-2.203a.464.464 0 0 1 0-.898l8.483-2.203a3.293 3.293 0 0 0 2.361-2.361l2.203-8.483Z" style="fill:#98dc9a" transform="translate(-160.419 -109.528) scale(2.56961)"/></svg>

<?xml version="1.0" encoding="UTF-8" standalone="no"?>
<!DOCTYPE svg PUBLIC "-//W3C//DTD SVG 1.1//EN" "http://www.w3.org/Graphics/SVG/1.1/DTD/svg11.dtd">
<svg width="100%" height="100%" viewBox="0 0 192 192" version="1.1" xmlns="http://www.w3.org/2000/svg" xmlns:xlink="http://www.w3.org/1999/xlink" xml:space="preserve" xmlns:serif="http://www.serif.com/" style="fill-rule:evenodd;clip-rule:evenodd;stroke-linejoin:round;stroke-miterlimit:2;">
    <g transform="matrix(1,0,0,1,8,8)">
        <g>
            <path d="M164.5,21.5C164.5,15.981 160.019,11.5 154.5,11.5L21.5,11.5C15.981,11.5 11.5,15.981 11.5,21.5L11.5,154.5C11.5,160.019 15.981,164.5 21.5,164.5L154.5,164.5C160.019,164.5 164.5,160.019 164.5,154.5L164.5,21.5Z" style="fill:white;"/>
        </g>
    </g>
    <g transform="matrix(2.56961,0,0,2.56961,-160.419,-109.528)">
        <g id="Layer1">
            <path d="M99.34,66.488C99.393,66.283 99.578,66.14 99.789,66.14C100,66.14 100.185,66.283 100.238,66.488C100.822,68.737 101.839,72.653 102.441,74.971C102.741,76.128 103.645,77.032 104.802,77.332C107.12,77.934 111.036,78.951 113.285,79.535C113.49,79.588 113.633,79.773 113.633,79.984C113.633,80.195 113.49,80.38 113.285,80.433C111.036,81.017 107.12,82.034 104.802,82.636C103.645,82.936 102.741,83.84 102.441,84.997C101.839,87.315 100.822,91.231 100.238,93.48C100.185,93.685 100,93.828 99.789,93.828C99.578,93.828 99.393,93.685 99.34,93.48C98.756,91.231 97.739,87.315 97.137,84.997C96.837,83.84 95.933,82.936 94.776,82.636C92.458,82.034 88.542,81.017 86.293,80.433C86.088,80.38 85.945,80.195 85.945,79.984C85.945,79.773 86.088,79.588 86.293,79.535C88.542,78.951 92.458,77.934 94.776,77.332C95.933,77.032 96.837,76.128 97.137,74.971C97.739,72.653 98.756,68.737 99.34,66.488Z" style="fill:rgb(152,220,154);"/>
        </g>
    </g>
</svg>
